**harm	**harte	**kern	**silbe	**kern	**silbe	**rhyme	**timestamp	**phrase	**leadinstrument
*M4/4	*M4/4	*ICvox	*	*ICvox	*	*	*	*	*
*	*	*VRlead	*	*VRharmonize	*	*	*	*	*
*	*	*Hstimme	*	*Nstimme	*	*	*	*	*
*g#:	*g#:	*g#:	*	*g#:	*	*	*	*	*
*	*	*M4/4	*	*M4/4	*	*	*	*	*
*	*	*clefG2	*	*clefG2	*	*	*	*	*
1r;	N	r;	.	r;	.	.	0	.	r
=1	=1	=1	=1	=1	=1	=1	=1	=1	=1
*>Letter>A	*>Letter>A	*>Letter>A	*>Letter>A	*>Letter>A	*>Letter>A	*>Letter>A	*>Letter>A	*>Letter>A	*>Letter>A
*>Label>Intro	*>Label>Intro	*>Label>Intro	*>Label>Intro	*>Label>Intro	*>Label>Intro	*>Label>Intro	*>Label>Intro	*>Label>Intro	*>Label>Intro
1i7	G#:min7	1r	.	1r	.	.	0.325	newline	synth
=2	=2	=2	=2	=2	=2	=2	=2	=2	=2
1i7	G#:min7	1r	.	1r	.	.	2.808	.	synth
=3	=3	=3	=3	=3	=3	=3	=3	=3	=3
1-VIIe	F#:maj/2	1r	.	1r	.	.	5.291	.	synth
=4	=4	=4	=4	=4	=4	=4	=4	=4	=4
1-VIIe	F#:maj/2	1r	.	1r	.	.	7.774	.	synth
=5	=5	=5	=5	=5	=5	=5	=5	=5	=5
1i7	G#:min7	1r	.	1r	.	.	10.257	newline	synth
=6	=6	=6	=6	=6	=6	=6	=6	=6	=6
1i7	G#:min7	1r	.	1r	.	.	12.717	.	synth
=7	=7	=7	=7	=7	=7	=7	=7	=7	=7
1-VIIe	F#:maj/2	1r	.	1r	.	.	15.176	.	synth
=8	=8	=8	=8	=8	=8	=8	=8	=8	=8
1-VIIe	F#:maj/2	2r	.	1r	.	.	17.635	.	synth
.	.	4.r	.	.	.	.	.	.	.
.	.	8G#	You	.	.	.	.	.	.
=9	=9	=9	=9	=9	=9	=9	=9	=9	=9
*>Letter>A	*>Letter>A	*>Letter>A	*>Letter>A	*>Letter>A	*>Letter>A	*>Letter>A	*>Letter>A	*>Letter>A	*>Letter>A
*>Label>Verse	*>Label>Verse	*>Label>Verse	*>Label>Verse	*>Label>Verse	*>Label>Verse	*>Label>Verse	*>Label>Verse	*>Label>Verse	*>Label>Verse
1i7	G#:min7	8.d#	must	1r	.	A	20.094	newline	voice
.	.	8.c#	un-	.	.	.	.	.	.
.	.	8G#	-der-	.	.	.	.	.	.
.	.	8B	-stand	.	.	B	.	.	.
.	.	8G#	_	.	.	.	.	.	.
.	.	8G#	though	.	.	.	.	.	.
.	.	8B	the	.	.	.	.	.	.
=10	=10	=10	=10	=10	=10	=10	=10	=10	=10
1i7	G#:min7	8.d#	touch	1r	.	A	22.555	.	voice
.	.	8.c#	of	.	.	.	.	.	.
.	.	8G#	your	.	.	.	.	.	.
.	.	8B	hand	.	.	B	.	.	.
.	.	8G#	_	.	.	.	.	.	.
.	.	8G#	make	.	.	.	.	.	.
.	.	8B	my	.	.	.	.	.	.
=11	=11	=11	=11	=11	=11	=11	=11	=11	=11
1-VIIe	F#:maj/2	8.c#	pulse	1r	.	.	25.015	.	voice
.	.	8.f#	re-	.	.	.	.	.	.
.	.	16d#	-act	.	.	C	.	.	.
.	.	16c#	_	.	.	.	.	.	.
.	.	8d#	_	.	.	.	.	.	.
.	.	8r	.	.	.	.	.	.	.
.	.	4r	.	.	.	.	.	.	.
=12	=12	=12	=12	=12	=12	=12	=12	=12	=12
1-VIIe	F#:maj/2	2r	.	1r	.	.	27.476	.	voice
.	.	4r	.	.	.	.	.	.	.
.	.	8G#	That	.	.	.	.	.	.
.	.	8B	it's	.	.	.	.	.	.
=13	=13	=13	=13	=13	=13	=13	=13	=13	=13
1i7	G#:min7	8.d#	on-	1r	.	.	29.936	newline	voice
.	.	8c#	-ly	.	.	.	.	.	.
.	.	16B	the	.	.	.	.	.	.
.	.	8c#	_	.	.	.	.	.	.
.	.	8B	thrill	.	.	.	.	.	.
.	.	8G#	_	.	.	.	.	.	.
.	.	8r	.	.	.	.	.	.	.
.	.	8G#	of	.	.	.	.	.	.
=14	=14	=14	=14	=14	=14	=14	=14	=14	=14
1i7	G#:min7	8.d#	boy	1r	.	.	32.365	.	voice
.	.	8.c#	meet-	.	.	.	.	.	.
.	.	8G#	-ing	.	.	.	.	.	.
.	.	8B	girl	.	.	.	.	.	.
.	.	8G#	_	.	.	.	.	.	.
.	.	8G#	op-	.	.	.	.	.	.
.	.	8B	-po-	.	.	.	.	.	.
=15	=15	=15	=15	=15	=15	=15	=15	=15	=15
1-VIIe	F#:maj/2	8.c#	-sites	1r	.	.	34.794	.	voice
.	.	8.f#	at-	.	.	.	.	.	.
.	.	16d#	-tract	.	.	C	.	.	.
.	.	16c#	_	.	.	.	.	.	.
.	.	8d#	_	.	.	.	.	.	.
.	.	8r	.	.	.	.	.	.	.
.	.	8r	.	.	.	.	.	.	.
.	.	8G#	It's	.	.	.	.	.	.
=16	=16	=16	=16	=16	=16	=16	=16	=16	=16
*>Letter>B	*>Letter>B	*>Letter>B	*>Letter>B	*>Letter>B	*>Letter>B	*>Letter>B	*>Letter>B	*>Letter>B	*>Letter>B
*>Label>Prechorus	*>Label>Prechorus	*>Label>Prechorus	*>Label>Prechorus	*>Label>Prechorus	*>Label>Prechorus	*>Label>Prechorus	*>Label>Prechorus	*>Label>Prechorus	*>Label>Prechorus
2-VI	E:maj	8.B	phys-	1r	.	.	37.223	newline	voice
.	.	8.c#	-i-	.	.	.	.	.	.
.	.	4c#	-cal	.	.	D	.	.	.
2-VII	F#:maj	.	.	.	.	.	38.455	.	voice
.	.	8d#	_	.	.	.	.	.	.
.	.	4r	.	.	.	.	.	.	.
=17	=17	=17	=17	=17	=17	=17	=17	=17	=17
1-VII	F#:maj	2r	.	1r	.	.	39.686	.	voice
.	.	4r	.	.	.	.	.	.	.
.	.	8d#	On-	.	.	.	.	.	.
.	.	8B	-ly	.	.	.	.	.	.
=18	=18	=18	=18	=18	=18	=18	=18	=18	=18
2-VI	E:maj	8.B	log-	1r	.	.	42.149	.	voice
.	.	8.c#	-i-	.	.	.	.	.	.
.	.	4c#	-cal	.	.	D	.	.	.
2-VII	F#:maj	.	.	.	.	.	43.381	.	voice
.	.	16A#	_	.	.	.	.	.	.
.	.	16G#	_	.	.	.	.	.	.
.	.	8F#	_	.	.	.	.	.	.
.	.	8r	.	.	.	.	.	.	.
=19	=19	=19	=19	=19	=19	=19	=19	=19	=19
1-VII	F#:maj	2r	.	1r	.	.	44.612	.	voice
.	.	4r	.	.	.	.	.	.	.
.	.	8G#	You	.	.	.	.	.	.
.	.	8B	must	.	.	.	.	.	.
=20	=20	=20	=20	=20	=20	=20	=20	=20	=20
1-VI	E:maj	8.d#	try	1r	.	.	47.076	newline	voice
.	.	8.c#	to	.	.	.	.	.	.
.	.	8c#	ig-	.	.	.	.	.	.
.	.	8B	-nore	.	.	E	.	.	.
.	.	16G#	_	.	.	.	.	.	.
.	.	16r	.	.	.	.	.	.	.
.	.	8G#	that	.	.	.	.	.	.
.	.	8B	it	.	.	.	.	.	.
=21	=21	=21	=21	=21	=21	=21	=21	=21	=21
1-VII	F#:maj	8.g#	means	1r	.	.	49.528	.	voice
.	.	8f#	more	.	.	E	.	.	.
.	.	8.g#	than	.	.	.	.	.	.
.	.	8f#	that	.	.	.	.	.	.
.	.	8r	.	.	.	.	.	.	.
.	.	8b	Oh	.	.	.	.	.	.
.	.	8a#	_	.	.	.	.	.	.
=22	=22	=22	=22	=22	=22	=22	=22	=22	=22
*>Letter>C	*>Letter>C	*>Letter>C	*>Letter>C	*>Letter>C	*>Letter>C	*>Letter>C	*>Letter>C	*>Letter>C	*>Letter>C
*>Label>Chorus	*>Label>Chorus	*>Label>Chorus	*>Label>Chorus	*>Label>Chorus	*>Label>Chorus	*>Label>Chorus	*>Label>Chorus	*>Label>Chorus	*>Label>Chorus
2i	B:maj	8g#	_	1r	.	.	51.98	newline	voice
.	.	8r	.	.	.	.	.	.	.
.	.	4b	What's	.	.	.	.	.	.
2-VII	F#:maj	8a#	love	.	.	.	53.204	.	voice
.	.	8g#	_	.	.	.	.	.	.
.	.	8f#	got	.	.	.	.	.	.
.	.	16d#	to	.	.	.	.	.	.
.	.	[16f#	do	.	.	.	.	.	.
=23	=23	=23	=23	=23	=23	=23	=23	=23	=23
2-VI	E:maj	8f#]	_	1r	.	.	54.428	.	voice
.	.	8r	.	.	.	.	.	.	.
.	.	8f#	got	.	.	.	.	.	.
.	.	16d#	to	.	.	.	.	.	.
.	.	[16f#	do	.	.	.	.	.	.
2-VII	F#:maj	16f#]	_	.	.	.	55.652	.	voice
.	.	16f#	with	.	.	.	.	.	.
.	.	8f#	it?	.	.	.	.	.	.
.	.	4r	.	.	.	.	.	.	.
=24	=24	=24	=24	=24	=24	=24	=24	=24	=24
2i	B:maj	4r	.	1r	.	.	56.876	.	voice
.	.	8b	What's	.	.	.	.	.	.
.	.	8r	.	.	.	.	.	.	.
2-VII	F#:maj	8a#	love	.	.	.	58.1	.	voice
.	.	8g#	_	.	.	.	.	.	.
.	.	8r	.	.	.	.	.	.	.
.	.	16f#	but	.	.	.	.	.	.
.	.	16f#	a	.	.	.	.	.	.
=25	=25	=25	=25	=25	=25	=25	=25	=25	=25
2-VI	E:maj	8g#	se-	1r	.	.	59.324	.	voice
.	.	8f#	-cond	.	.	.	.	.	.
.	.	8f#	hand	.	.	.	.	.	.
.	.	8g#	e-	.	.	.	.	.	.
2-VII	F#:maj	4d#	-mo-	.	.	(F	60.548	.	voice
.	.	16c#	-tion	.	.	f)	.	.	.
.	.	8.B	_	.	.	.	.	.	.
=26	=26	=26	=26	=26	=26	=26	=26	=26	=26
2i	B:maj	4r	.	1r	.	.	61.772	newline	voice
.	.	4b	What's	.	.	.	.	.	.
2-VII	F#:maj	8a#	love	.	.	.	62.994	.	voice
.	.	8g#	_	.	.	.	.	.	.
.	.	8f#	got	.	.	.	.	.	.
.	.	16d#	to	.	.	.	.	.	.
.	.	[16f#	do	.	.	.	.	.	.
=27	=27	=27	=27	=27	=27	=27	=27	=27	=27
2-VI	E:maj	8f#]	_	1r	.	.	64.216	.	voice
.	.	8r	.	.	.	.	.	.	.
.	.	8f#	got	.	.	.	.	.	.
.	.	16d#	to	.	.	.	.	.	.
.	.	[16f#	do	.	.	.	.	.	.
2-VII	F#:maj	16f#]	_	.	.	.	65.438	.	voice
.	.	16f#	with	.	.	.	.	.	.
.	.	8f#	it?	.	.	.	.	.	.
.	.	4r	.	.	.	.	.	.	.
=28	=28	=28	=28	=28	=28	=28	=28	=28	=28
2i	B:maj	8.g#	Who	1r	.	.	66.66	.	voice
.	.	8.f#	needs	.	.	.	.	.	.
.	.	8d#	a	.	.	.	.	.	.
2-VII	F#:maj	8.g#	heart	.	.	.	67.882	.	voice
.	.	8.f#	when	.	.	.	.	.	.
.	.	16d#	a	.	.	.	.	.	.
.	.	16r	.	.	.	.	.	.	.
=29	=29	=29	=29	=29	=29	=29	=29	=29	=29
2-VI	E:maj	8.g#	heart	1r	.	.	69.104	.	voice
.	.	8.f#	can	.	.	.	.	.	.
.	.	8d#	be	.	.	.	.	.	.
2-VII	F#:maj	8.g#	bro-	.	.	(F	70.326	.	voice
.	.	16f#	-ken?	.	.	f)	.	.	.
.	.	8d#	_	.	.	.	.	.	.
.	.	8G#	It	.	.	.	.	.	.
=30	=30	=30	=30	=30	=30	=30	=30	=30	=30
*>Letter>A	*>Letter>A	*>Letter>A	*>Letter>A	*>Letter>A	*>Letter>A	*>Letter>A	*>Letter>A	*>Letter>A	*>Letter>A
*>Label>Verse	*>Label>Verse	*>Label>Verse	*>Label>Verse	*>Label>Verse	*>Label>Verse	*>Label>Verse	*>Label>Verse	*>Label>Verse	*>Label>Verse
1i7	G#:min7	16B	may	1r	.	.	71.548	newline	voice
.	.	8d#	_	.	.	.	.	.	.
.	.	8.c#	seem	.	.	.	.	.	.
.	.	8G#	to	.	.	.	.	.	.
.	.	16B	you	.	.	G	.	.	.
.	.	16G#	_	.	.	.	.	.	.
.	.	8r	.	.	.	.	.	.	.
.	.	16G#	that	.	.	.	.	.	.
.	.	8.B	I'm	.	.	.	.	.	.
=31	=31	=31	=31	=31	=31	=31	=31	=31	=31
1i7	G#:min7	8.d#	act-	1r	.	.	74.007	.	voice
.	.	8c#	-ing	.	.	.	.	.	.
.	.	16B	con-	.	.	.	.	.	.
.	.	8c#	_	.	.	.	.	.	.
.	.	16B	-fused	.	.	G	.	.	.
.	.	8G#	_	.	.	.	.	.	.
.	.	16r	.	.	.	.	.	.	.
.	.	8G#	when	.	.	.	.	.	.
.	.	8B	you're	.	.	.	.	.	.
=32	=32	=32	=32	=32	=32	=32	=32	=32	=32
1-VIIe	F#:maj/2	8.c#	close	1r	.	.	76.465	.	voice
.	.	8.f#	to	.	.	.	.	.	.
.	.	16d#	me	.	.	.	.	.	.
.	.	16c#	_	.	.	.	.	.	.
.	.	4d#	_	.	.	.	.	.	.
.	.	4f#	_	.	.	.	.	.	.
=33	=33	=33	=33	=33	=33	=33	=33	=33	=33
1-VIIe	F#:maj/2	2r	.	1r	.	.	78.923	.	voice
.	.	4r	.	.	.	.	.	.	.
.	.	8G#	If	.	.	.	.	.	.
.	.	8B	I	.	.	.	.	.	.
=34	=34	=34	=34	=34	=34	=34	=34	=34	=34
1i7	G#:min7	8.d#	tend	1r	.	.	81.382	newline	voice
.	.	8c#	to	.	.	.	.	.	.
.	.	16B	look	.	.	.	.	.	.
.	.	8c#	_	.	.	.	.	.	.
.	.	16B	dazed	.	.	H	.	.	.
.	.	8.G#	_	.	.	.	.	.	.
.	.	8r	.	.	.	.	.	.	.
.	.	8G#	I	.	.	.	.	.	.
=35	=35	=35	=35	=35	=35	=35	=35	=35	=35
1i7	G#:min7	8.d#	read	1r	.	.	83.231	.	voice
.	.	8c#	it	.	.	.	.	.	.
.	.	16B	some	.	.	.	.	.	.
.	.	8c#	_	.	.	.	.	.	.
.	.	16B	place	.	.	H	.	.	.
.	.	16G#	_	.	.	.	.	.	.
.	.	8r	.	.	.	.	.	.	.
.	.	8G#	I've	.	.	.	.	.	.
.	.	8B	got	.	.	.	.	.	.
=36	=36	=36	=36	=36	=36	=36	=36	=36	=36
1-VIIe	F#:maj/2	8.c#	cause	1r	.	.	85.081	.	voice
.	.	8.f#	to	.	.	.	.	.	.
.	.	16d#	be	.	.	I	.	.	.
.	.	16c#	_	.	.	.	.	.	.
.	.	8d#	_	.	.	.	.	.	.
.	.	8r	.	.	.	.	.	.	.
.	.	8r	.	.	.	.	.	.	.
.	.	16G#	There's	.	.	.	.	.	.
.	.	16B	a	.	.	.	.	.	.
=37	=37	=37	=37	=37	=37	=37	=37	=37	=37
*>Letter>B	*>Letter>B	*>Letter>B	*>Letter>B	*>Letter>B	*>Letter>B	*>Letter>B	*>Letter>B	*>Letter>B	*>Letter>B
*>Label>Prechorus	*>Label>Prechorus	*>Label>Prechorus	*>Label>Prechorus	*>Label>Prechorus	*>Label>Prechorus	*>Label>Prechorus	*>Label>Prechorus	*>Label>Prechorus	*>Label>Prechorus
2-VI	E:maj	8.B	name	1r	.	.	88.78	newline	voice
.	.	8.c#	for	.	.	.	.	.	.
.	.	4c#	it	.	.	J	.	.	.
2-VII	F#:maj	.	.	.	.	.	90	.	voice
.	.	8d#	_	.	.	.	.	.	.
.	.	4r	.	.	.	.	.	.	.
=38	=38	=38	=38	=38	=38	=38	=38	=38	=38
1-VII	F#:maj	2r	.	1r	.	.	91.221	.	voice
.	.	4r	.	.	.	.	.	.	.
.	.	8d#	There's	.	.	.	.	.	.
.	.	8B	a	.	.	.	.	.	.
=39	=39	=39	=39	=39	=39	=39	=39	=39	=39
2-VI	E:maj	8.B	phrase	1r	.	.	93.662	.	voice
.	.	8.c#	to	.	.	.	.	.	.
.	.	4c#	fits	.	.	J	.	.	.
2-VII	F#:maj	.	.	.	.	.	94.882	.	voice
.	.	16A#	_	.	.	.	.	.	.
.	.	16G#	_	.	.	.	.	.	.
.	.	8.F#	_	.	.	.	.	.	.
.	.	16G#	_	.	.	.	.	.	.
=40	=40	=40	=40	=40	=40	=40	=40	=40	=40
1-VII	F#:maj	2r	.	1r	.	.	96.103	.	voice
.	.	4r	.	.	.	.	.	.	.
.	.	8G#	But	.	.	.	.	.	.
.	.	8B	what-	.	.	.	.	.	.
=41	=41	=41	=41	=41	=41	=41	=41	=41	=41
1-VI	E:maj	8.d#	-e-	1r	.	.	98.543	newline	voice
.	.	8c#	-ver	.	.	.	.	.	.
.	.	8B	the	.	.	.	.	.	.
.	.	16G#	_	.	.	.	.	.	.
.	.	8.B	rea-	.	.	I	.	.	.
.	.	8G#	-son	.	.	.	.	.	.
.	.	16r	.	.	.	.	.	.	.
.	.	8B	you	.	.	.	.	.	.
=42	=42	=42	=42	=42	=42	=42	=42	=42	=42
1-VII	F#:maj	8.g#	do	1r	.	.	101.014	.	voice
.	.	8.f#	it	.	.	.	.	.	.
.	.	8g#	for	.	.	.	.	.	.
.	.	8f#	me	.	.	I	.	.	.
.	.	8r	.	.	.	.	.	.	.
.	.	8b	Oh	.	.	.	.	.	.
.	.	8a#	_	.	.	.	.	.	.
=43	=43	=43	=43	=43	=43	=43	=43	=43	=43
*>Letter>C	*>Letter>C	*>Letter>C	*>Letter>C	*>Letter>C	*>Letter>C	*>Letter>C	*>Letter>C	*>Letter>C	*>Letter>C
*>Label>Chorus	*>Label>Chorus	*>Label>Chorus	*>Label>Chorus	*>Label>Chorus	*>Label>Chorus	*>Label>Chorus	*>Label>Chorus	*>Label>Chorus	*>Label>Chorus
2i	B:maj	8g#	_	1r	.	.	103.485	newline	voice
.	.	8r	.	.	.	.	.	.	.
.	.	4b	What's	.	.	.	.	.	.
2-VII	F#:maj	8a#	love	.	.	.	104.709	.	voice
.	.	8g#	_	.	.	.	.	.	.
.	.	8f#	got	.	.	.	.	.	.
.	.	16d#	to	.	.	.	.	.	.
.	.	[16f#	do	.	.	.	.	.	.
=44	=44	=44	=44	=44	=44	=44	=44	=44	=44
2-VI	E:maj	8f#]	_	1r	.	.	105.933	.	voice
.	.	8r	.	.	.	.	.	.	.
.	.	8f#	got	.	.	.	.	.	.
.	.	16d#	to	.	.	.	.	.	.
.	.	[16f#	do	.	.	.	.	.	.
2-VII	F#:maj	16f#]	_	.	.	.	107.157	.	voice
.	.	16f#	with	.	.	.	.	.	.
.	.	8f#	it?	.	.	.	.	.	.
.	.	4r	.	.	.	.	.	.	.
=45	=45	=45	=45	=45	=45	=45	=45	=45	=45
2i	B:maj	4r	.	1r	.	.	108.382	.	voice
.	.	4b	What's	.	.	.	.	.	.
2-VII	F#:maj	8a#	love	.	.	.	109.606	.	voice
.	.	8g#	_	.	.	.	.	.	.
.	.	8r	.	.	.	.	.	.	.
.	.	16f#	but	.	.	.	.	.	.
.	.	16f#	a	.	.	.	.	.	.
=46	=46	=46	=46	=46	=46	=46	=46	=46	=46
2i	E:maj	8g#	se-	1r	.	.	110.83	.	voice
.	.	8f#	-cond	.	.	.	.	.	.
.	.	8f#	hand	.	.	.	.	.	.
.	.	8g#	e-	.	.	.	.	.	.
2-VII	F#:maj	4d#	-mo-	.	.	(F	112.054	.	voice
.	.	16c#	-tion	.	.	f)	.	.	.
.	.	8.B	_	.	.	.	.	.	.
=47	=47	=47	=47	=47	=47	=47	=47	=47	=47
2i	B:maj	4r	.	1r	.	.	113.279	newline	voice
.	.	4b	What's	.	.	.	.	.	.
2-VII	F#:maj	8a#	love	.	.	.	114.503	.	voice
.	.	8g#	_	.	.	.	.	.	.
.	.	8f#	got	.	.	.	.	.	.
.	.	16d#	to	.	.	.	.	.	.
.	.	[16f#	do	.	.	.	.	.	.
=48	=48	=48	=48	=48	=48	=48	=48	=48	=48
2-VI	E:maj	8f#]	_	1r	.	.	115.728	.	voice
.	.	8r	.	.	.	.	.	.	.
.	.	8f#	got	.	.	.	.	.	.
.	.	16d#	to	.	.	.	.	.	.
.	.	[16f#	do	.	.	.	.	.	.
2-VII	F#:maj	16f#]	_	.	.	.	116.953	.	voice
.	.	16f#	with	.	.	.	.	.	.
.	.	8f#	it?	.	.	.	.	.	.
.	.	4r	.	.	.	.	.	.	.
=49	=49	=49	=49	=49	=49	=49	=49	=49	=49
2i	B:maj	8.g#	Who	1r	.	.	118.177	.	voice
.	.	8.f#	needs	.	.	.	.	.	.
.	.	8d#	a	.	.	.	.	.	.
2-VII	F#:maj	8.g#	heart	.	.	.	119.402	.	voice
.	.	8f#	when	.	.	.	.	.	.
.	.	16d#	a	.	.	.	.	.	.
.	.	8r	.	.	.	.	.	.	.
=50	=50	=50	=50	=50	=50	=50	=50	=50	=50
2-VI	E:maj	8.g#	heart	1r	.	.	120.627	.	voice
.	.	8.f#	can	.	.	.	.	.	.
.	.	8d#	be	.	.	.	.	.	.
2-VII	F#:maj	4g#	bro-	.	.	(F	121.851	.	voice
.	.	8f#	-ken?	.	.	f)	.	.	.
.	.	8d#	_	.	.	.	.	.	.
=51	=51	=51	=51	=51	=51	=51	=51	=51	=51
*>Letter>D	*>Letter>D	*>Letter>D	*>Letter>D	*>Letter>D	*>Letter>D	*>Letter>D	*>Letter>D	*>Letter>D	*>Letter>D
*>Label>Solo	*>Label>Solo	*>Label>Solo	*>Label>Solo	*>Label>Solo	*>Label>Solo	*>Label>Solo	*>Label>Solo	*>Label>Solo	*>Label>Solo
*C#:	*C#:	*C#:	*	*C#:	*	*	*	*	*
2I	C#:maj	2.r	.	1r	.	.	123.076	newline	harmonica
2V	G#:maj	.	.	.	.	.	124.303	.	harmonica
.	.	[4cc#	Huh	.	.	.	.	.	.
=52	=52	=52	=52	=52	=52	=52	=52	=52	=52
2IV	F#:maj	2cc#_	_	1r	.	.	125.53	.	harmonica
2V	G#:maj	8cc#]	_	.	.	.	126.757	.	harmonica
.	.	16a#	_	.	.	.	.	.	.
.	.	16g#	_	.	.	.	.	.	.
.	.	4r	.	.	.	.	.	.	.
=53	=53	=53	=53	=53	=53	=53	=53	=53	=53
2I	C#:maj	1r	.	1r	.	.	127.984	.	harmonica
2V	G#:maj	.	.	.	.	.	129.211	.	harmonica
=54	=54	=54	=54	=54	=54	=54	=54	=54	=54
2IV	F#:maj	1r	.	1r	.	.	130.438	.	harmonica
2V	G#:maj	.	.	.	.	.	131.665	.	harmonica
=55	=55	=55	=55	=55	=55	=55	=55	=55	=55
2I	C#:maj	1r	.	1r	.	.	132.892	newline	harmonica
2V	G#:maj	.	.	.	.	.	134.118	.	harmonica
=56	=56	=56	=56	=56	=56	=56	=56	=56	=56
2IV	F#:maj	1r	.	1r	.	.	135.345	.	harmonica
2V	G#:maj	.	.	.	.	.	136.571	.	harmonica
=57	=57	=57	=57	=57	=57	=57	=57	=57	=57
2I	C#:maj	1r	.	1r	.	.	137.797	.	harmonica
2V	G#:maj	.	.	.	.	.	139.024	.	harmonica
=58	=58	=58	=58	=58	=58	=58	=58	=58	=58
*M2/4	*M2/4	*M2/4	*	*M2/4	*	*	*M2/4	*M2/4	*M2/4
2IV	F#:maj	2r	.	2r	.	.	140.25	.	harmonica
=59	=59	=59	=59	=59	=59	=59	=59	=59	=59
*>Letter>E	*>Letter>E	*>Letter>E	*>Letter>E	*>Letter>E	*>Letter>E	*>Letter>E	*>Letter>E	*>Letter>E	*>Letter>E
*>Label>Bridge	*>Label>Bridge	*>Label>Bridge	*>Label>Bridge	*>Label>Bridge	*>Label>Bridge	*>Label>Bridge	*>Label>Bridge	*>Label>Bridge	*>Label>Bridge
*M4/4	*M4/4	*	*	*	*	*	*M4/4	*M4/4	*M4/4
1-VIIe	B:maj/2	4r	.	1r	.	.	141.476	newline	voice
.	.	8f#	I've	.	.	.	.	.	.
.	.	8f#	been	.	.	.	.	.	.
.	.	8f#	ta-	.	.	.	.	.	.
.	.	8f#	-king	.	.	.	.	.	.
.	.	8f#	on	.	.	.	.	.	.
.	.	8f#	a	.	.	.	.	.	.
=60	=60	=60	=60	=60	=60	=60	=60	=60	=60
1I	C#:maj	4g#	new	1r	.	.	143.927	.	voice
.	.	4e#	di-	.	.	.	.	.	.
.	.	16e#	-rec-	.	.	(K	.	.	.
.	.	16d#	_	.	.	.	.	.	.
.	.	[8c#	-tion	.	.	k)	.	.	.
.	.	8.c#]	_	.	.	.	.	.	.
.	.	16d#	_	.	.	.	.	.	.
=61	=61	=61	=61	=61	=61	=61	=61	=61	=61
1-VIIe	B:maj/2	4r	.	1r	.	.	146.377	.	voice
.	.	16r	.	.	.	.	.	.	.
.	.	16c#	But	.	.	.	.	.	.
.	.	8c#	I	.	.	.	.	.	.
.	.	8.a#	have	.	.	.	.	.	.
.	.	8g#	_	.	.	.	.	.	.
.	.	16g#	to	.	.	.	.	.	.
.	.	[8e#	say	.	.	H	.	.	.
=62	=62	=62	=62	=62	=62	=62	=62	=62	=62
1I	C#:maj	16e#]	_	1r	.	.	148.827	.	voice
.	.	16d#	_	.	.	.	.	.	.
.	.	4.c#	_	.	.	.	.	.	.
.	.	2r	.	.	.	.	.	.	.
=63	=63	=63	=63	=63	=63	=63	=63	=63	=63
1-VI	A:maj	4r	.	1r	.	.	151.278	newline	voice
.	.	8e	I've	.	.	.	.	.	.
.	.	8e	been	.	.	.	.	.	.
.	.	8e	think-	.	.	.	.	.	.
.	.	16e	-ing	.	.	.	.	.	.
.	.	16e	a-	.	.	.	.	.	.
.	.	8e	-bout	.	.	.	.	.	.
.	.	8e	my	.	.	.	.	.	.
=64	=64	=64	=64	=64	=64	=64	=64	=64	=64
1-VIId	B:maj/b7	4f#	own	1r	.	.	153.732	.	voice
.	.	8d#	pro-	.	.	.	.	.	.
.	.	8c#	_	.	.	.	.	.	.
.	.	8c#	-tec-	.	.	(K	.	.	.
.	.	8B	-tion	.	.	k)	.	.	.
.	.	8r	.	.	.	.	.	.	.
.	.	8B	It	.	.	.	.	.	.
=65	=65	=65	=65	=65	=65	=65	=65	=65	=65
1v7	G#:min7	4f#	scares	1r	.	.	156.187	.	voice
.	.	8f#	me	.	.	.	.	.	.
.	.	8f#	to	.	.	.	.	.	.
.	.	8f#	think	.	.	.	.	.	.
.	.	4b	this	.	.	.	.	.	.
.	.	16g#	way	.	.	H	.	.	.
.	.	16f#	_	.	.	.	.	.	.
=66	=66	=66	=66	=66	=66	=66	=66	=66	=66
1I	C#:maj	2g#	_	1r	.	.	158.641	.	voice
.	.	4r	.	.	.	.	.	.	.
.	.	8cc#	Oh	.	.	.	.	.	.
.	.	8b#	_	.	.	.	.	.	.
=67	=67	=67	=67	=67	=67	=67	=67	=67	=67
*>Letter>C	*>Letter>C	*>Letter>C	*>Letter>C	*>Letter>C	*>Letter>C	*>Letter>C	*>Letter>C	*>Letter>C	*>Letter>C
*>Label>Chorus	*>Label>Chorus	*>Label>Chorus	*>Label>Chorus	*>Label>Chorus	*>Label>Chorus	*>Label>Chorus	*>Label>Chorus	*>Label>Chorus	*>Label>Chorus
*a#:	*a#:	*a#:	*	*a#:	*	*	*	*	*
2i	C#:maj	8a#	_	1r	.	.	161.096	newline	voice
.	.	8r	.	.	.	.	.	.	.
.	.	4cc#	What's	.	.	.	.	.	.
2-VII	G#:maj	8b#	love	.	.	.	162.319	.	voice
.	.	8a#	_	.	.	.	.	.	.
.	.	8g#	got	.	.	.	.	.	.
.	.	16e#	to	.	.	.	.	.	.
.	.	[16g#	do	.	.	.	.	.	.
=68	=68	=68	=68	=68	=68	=68	=68	=68	=68
2-VI	F#:maj	8g#]	_	1r	.	.	163.543	.	voice
.	.	8r	.	.	.	.	.	.	.
.	.	8g#	got	.	.	.	.	.	.
.	.	16e#	to	.	.	.	.	.	.
.	.	[16g#	do	.	.	.	.	.	.
2-VII	G#:maj	16g#]	_	.	.	.	164.767	.	voice
.	.	16g#	with	.	.	.	.	.	.
.	.	8g#	it?	.	.	.	.	.	.
.	.	4r	.	.	.	.	.	.	.
=69	=69	=69	=69	=69	=69	=69	=69	=69	=69
2i	C#:maj	4r	.	1r	.	.	165.991	.	voice
.	.	4cc#	What's	.	.	.	.	.	.
2-VII	G#:maj	8b#	love	.	.	.	167.214	.	voice
.	.	8a#	_	.	.	.	.	.	.
.	.	8r	.	.	.	.	.	.	.
.	.	16g#	but	.	.	.	.	.	.
.	.	16g#	a	.	.	.	.	.	.
=70	=70	=70	=70	=70	=70	=70	=70	=70	=70
2-VI	F#:maj	8a#	se-	1r	.	.	168.438	.	voice
.	.	8g#	-cond	.	.	.	.	.	.
.	.	8g#	hand	.	.	.	.	.	.
.	.	8a#	e-	.	.	.	.	.	.
2-VII	G#:maj	4e#	-mo-	.	.	(F	169.662	.	voice
.	.	16d#	-tion	.	.	f)	.	.	.
.	.	8.c#	_	.	.	.	.	.	.
=71	=71	=71	=71	=71	=71	=71	=71	=71	=71
2i	C#:maj	4r	.	1r	.	.	170.886	newline	voice
.	.	4cc#	What's	.	.	.	.	.	.
2-VII	G#:maj	8b#	love	.	.	.	172.118	.	voice
.	.	8a#	_	.	.	.	.	.	.
.	.	8g#	got	.	.	.	.	.	.
.	.	16e#	to	.	.	.	.	.	.
.	.	[16g#	do	.	.	.	.	.	.
=72	=72	=72	=72	=72	=72	=72	=72	=72	=72
2-VI	F#:maj	8g#]	_	1r	.	.	173.35	.	voice
.	.	8r	.	.	.	.	.	.	.
.	.	8g#	got	.	.	.	.	.	.
.	.	16e#	to	.	.	.	.	.	.
.	.	[16g#	do	.	.	.	.	.	.
2-VII	G#:maj	16g#]	_	.	.	.	174.583	.	voice
.	.	16g#	with	.	.	.	.	.	.
.	.	8g#	it?	.	.	.	.	.	.
.	.	4r	.	.	.	.	.	.	.
=73	=73	=73	=73	=73	=73	=73	=73	=73	=73
2i	C#:maj	8.a#	Who	1r	.	.	175.815	.	voice
.	.	8.g#	needs	.	.	.	.	.	.
.	.	8e#	a	.	.	.	.	.	.
2-VII	G#:maj	8.a#	heart	.	.	.	177.047	.	voice
.	.	8.g#	when	.	.	.	.	.	.
.	.	8e#	a	.	.	.	.	.	.
=74	=74	=74	=74	=74	=74	=74	=74	=74	=74
*M2/4	*M2/4	*M2/4	*	*M2/4	*	*	*M2/4	*M2/4	*M2/4
2-VI	F#:maj	8.a#	heart	2r	.	.	178.279	.	voice
.	.	8.g#	can	.	.	.	.	.	.
.	.	8e#	be	.	.	.	.	.	.
=75	=75	=75	=75	=75	=75	=75	=75	=75	=75
*M4/4	*M4/4	*M4/4	*	*M4/4	*	*	*M4/4	*M4/4	*M4/4
2i	C#:maj	4a#	bro-	4r	.	(F	179.512	newline	voice
.	.	16g#	-ken	4cc#	What's	f)	.	.	.
.	.	16a#	_	.	.	.	.	.	.
.	.	8r	.	.	.	.	.	.	.
2-VII	G#:maj	4r	.	8b#	love	.	180.741	.	voice
.	.	.	.	8a#	_	.	.	.	.
.	.	8g#	got	4r	.	.	.	.	.
.	.	16e#	to	.	.	.	.	.	.
.	.	[16g#	do	.	.	.	.	.	.
=76	=76	=76	=76	=76	=76	=76	=76	=76	=76
2-VI	F#:maj	8g#]	_	4r	.	.	181.971	.	voice
.	.	8r	.	.	.	.	.	.	.
.	.	8g#	got	8g#	got	.	.	.	.
.	.	16e#	to	16e#	to	.	.	.	.
.	.	[16g#	do	[16g#	do	.	.	.	.
2-VII	G#:maj	16g#]	_	16g#]	_	.	183.2	.	voice
.	.	16g#	with	16g#	with	.	.	.	.
.	.	8g#	it?	8g#	it?	.	.	.	.
.	.	4r	.	4r	.	.	.	.	.
=77	=77	=77	=77	=77	=77	=77	=77	=77	=77
2i	C#:maj	4r	.	4r	.	.	184.43	.	voice
.	.	8cc#	What's?	4cc#	What's	.	.	.	.
.	.	8cc#	_	.	.	.	.	.	.
2-VII	G#:maj	4dd#	love	8b#	love	.	185.659	.	voice
.	.	.	.	8a#	_	.	.	.	.
.	.	8r	.	4r	.	.	.	.	.
.	.	16g#	but	.	.	.	.	.	.
.	.	16g#	a	.	.	.	.	.	.
=78	=78	=78	=78	=78	=78	=78	=78	=78	=78
2-VI	F#:maj	8a#	sweet	1r	.	.	186.889	.	voice
.	.	8g#	old	.	.	.	.	.	.
.	.	8g#	fa-	.	.	.	.	.	.
.	.	8a#	-shion	.	.	.	.	.	.
2-VII	G#:maj	4e#	no-	.	.	(F	188.118	.	voice
.	.	16d#	-tion	.	.	f)	.	.	.
.	.	8.c#	_	.	.	.	.	.	.
=79	=79	=79	=79	=79	=79	=79	=79	=79	=79
2i	C#:maj	4r	.	4r	.	.	189.348	newline	voice
.	.	4cc#	What's	4cc#	What's	.	.	.	.
2-VII	G#:maj	8b#	love	8b#	love	.	190.567	.	voice
.	.	8a#	_	8a#	_	.	.	.	.
.	.	8g#	got	4r	.	.	.	.	.
.	.	16e#	to	.	.	.	.	.	.
.	.	[16a#	do	.	.	.	.	.	.
=80	=80	=80	=80	=80	=80	=80	=80	=80	=80
2-VI	F#:maj	8a#]	_	4r	.	.	191.786	.	voice
.	.	8r	.	.	.	.	.	.	.
.	.	8g#	got	8g#	got	.	.	.	.
.	.	16e#	to	16e#	to	.	.	.	.
.	.	[16g#	do	[16g#	do	.	.	.	.
2-VII	G#:maj	16g#]	_	16g#]	_	.	193.005	.	voice
.	.	16g#	with	16g#	with	.	.	.	.
.	.	8g#	it?	8g#	it?	.	.	.	.
.	.	4r	.	4r	.	.	.	.	.
=81	=81	=81	=81	=81	=81	=81	=81	=81	=81
2i	C#:maj	8.a#	Who	1r	.	.	194.224	.	voice
.	.	8.g#	needs	.	.	.	.	.	.
.	.	8e#	a	.	.	.	.	.	.
2-VII	G#:maj	8a#	heart	.	.	.	195.443	.	voice
.	.	8r	.	.	.	.	.	.	.
.	.	16r	.	.	.	.	.	.	.
.	.	16e#	when	.	.	.	.	.	.
.	.	16e#	a	.	.	.	.	.	.
.	.	16r	.	.	.	.	.	.	.
=82	=82	=82	=82	=82	=82	=82	=82	=82	=82
*M2/4	*M2/4	*M2/4	*	*M2/4	*	*	*M2/4	*M2/4	*M2/4
2-VI	F#:maj	8.a#	heart	2r	.	.	196.661	.	voice
.	.	8.g#	can	.	.	.	.	.	.
.	.	8e#	be	.	.	.	.	.	.
=83	=83	=83	=83	=83	=83	=83	=83	=83	=83
*M4/4	*M4/4	*M4/4	*	*M4/4	*	*	*M4/4	*M4/4	*M4/4
2i	C#:maj	4a#	bro-	4r	.	(F	197.88	newline	voice
.	.	16g#	-ken	4cc#	What's	f)	.	.	.
.	.	16e#	_	.	.	.	.	.	.
.	.	8r	.	.	.	.	.	.	.
2-VII	G#:maj	2r	.	8b#	love	.	199.11	.	voice
.	.	.	.	8r	.	.	.	.	.
.	.	.	.	8g#	got	.	.	.	.
.	.	.	.	16e#	to	.	.	.	.
.	.	.	.	[16g#	do	.	.	.	.
=84	=84	=84	=84	=84	=84	=84	=84	=84	=84
2-VI	F#:maj	4r	.	8g#]	_	.	200.34	.	voice
.	.	.	.	8r	.	.	.	.	.
.	.	4.cc#	Ooh	4r	.	.	.	.	.
2-VII	G#:maj	.	.	2r	.	.	201.569	.	voice
.	.	16a#	_	.	.	.	.	.	.
.	.	16r	.	.	.	.	.	.	.
.	.	8cc#	got	.	.	.	.	.	.
.	.	16a#	to	.	.	.	.	.	.
.	.	[16cc#	do	.	.	.	.	.	.
=85	=85	=85	=85	=85	=85	=85	=85	=85	=85
2i	C#:maj	16cc#]	_	4r	.	.	202.799	.	voice
.	.	16cc#	with	.	.	.	.	.	.
.	.	8a#	it?	.	.	.	.	.	.
.	.	4r	.	4cc#	What's	.	.	.	.
2-VII	G#:maj	2r	.	4b#	love	.	204.029	.	voice
.	.	.	.	8r	.	.	.	.	.
.	.	.	.	16g#	but	.	.	.	.
.	.	.	.	16g#	a	.	.	.	.
=86	=86	=86	=86	=86	=86	=86	=86	=86	=86
2-VI	F#:maj	1r	.	8a#	se-	.	205.258	.	voice
.	.	.	.	8g#	-cond	.	.	.	.
.	.	.	.	8g#	hand	.	.	.	.
.	.	.	.	8a#	e-	.	.	.	.
2-VII	G#:maj	.	.	4e#	-mo-	(F	206.488	.	voice
.	.	.	.	16d#	-tion	f)	.	.	.
.	.	.	.	8.c#	_	.	.	.	.
=87	=87	=87	=87	=87	=87	=87	=87	=87	=87
*>Label>>Fadeout	*>Label>>Fadeout	*>Label>>Fadeout	*>Label>>Fadeout	*>Label>>Fadeout	*>Label>>Fadeout	*>Label>>Fadeout	*>Label>>Fadeout	*>Label>>Fadeout	*>Label>>Fadeout
2i	C#:maj	4r	.	1r	.	.	207.717	newline	voice
.	.	4cc#	What's	.	.	.	.	.	.
2-VII	G#:maj	8b#	love	.	.	.	208.941	.	voice
.	.	8a#	_	.	.	.	.	.	.
.	.	8g#	got	.	.	.	.	.	.
.	.	16e#	to	.	.	.	.	.	.
.	.	[16g#	do	.	.	.	.	.	.
=88	=88	=88	=88	=88	=88	=88	=88	=88	=88
2-VI	F#:maj	8g#]	_	1r	.	.	210.165	.	voice
.	.	8r	.	.	.	.	.	.	.
.	.	8g#	got	.	.	.	.	.	.
.	.	16e#	to	.	.	.	.	.	.
.	.	[16g#	do	.	.	.	.	.	.
2-VII	G#:maj	16g#]	_	.	.	.	211.389	.	voice
.	.	16g#	with	.	.	.	.	.	.
.	.	8g#	it?	.	.	.	.	.	.
.	.	4r	.	.	.	.	.	.	.
=89	=89	=89	=89	=89	=89	=89	=89	=89	=89
2i	C#:maj	8.a#	Who	1r	.	.	212.612	.	voice
.	.	8.g#	takes	.	.	.	.	.	.
.	.	8e#	a	.	.	.	.	.	.
2-VII	G#:maj	8.a#	heart	.	.	.	213.836	.	voice
.	.	8g#	when	.	.	.	.	.	.
.	.	8e#	a	.	.	.	.	.	.
.	.	16r	.	.	.	.	.	.	.
=90	=90	=90	=90	=90	=90	=90	=90	=90	=90
*M2/4	*M2/4	*M2/4	*	*M2/4	*	*	*M2/4	*M2/4	*M2/4
2-VI	F#:maj	8.a#	heart	2r	.	.	215.06	.	voice
.	.	8.g#	can	.	.	.	.	.	.
.	.	8e#	be	.	.	.	.	.	.
=91	=91	=91	=91	=91	=91	=91	=91	=91	=91
*M4/4	*M4/4	*M4/4	*	*M4/4	*	*	*M4/4	*M4/4	*M4/4
2i	C#:maj	4a#	bro-	4r	.	(F	216.283	newline	voice
.	.	16g#	-ken	4cc#	What's	f)	.	.	.
.	.	16a#	_	.	.	.	.	.	.
.	.	8r	.	.	.	.	.	.	.
2-VII	G#:maj	4r	.	8b#	love	.	217.494	.	voice
.	.	.	.	8r	.	.	.	.	.
.	.	8ee	Ooh	4r	.	.	.	.	.
.	.	8dd#	_	.	.	.	.	.	.
=92	=92	=92	=92	=92	=92	=92	=92	=92	=92
2-VI	F#:maj	16cc#	ooh	4r	.	.	218.704	.	voice
.	.	16dd#	_	.	.	.	.	.	.
.	.	8r	.	.	.	.	.	.	.
.	.	4r	.	8g#	got	.	.	.	.
.	.	.	.	16e#	to	.	.	.	.
.	.	.	.	[16g#	do	.	.	.	.
2-VII	G#:maj	4r	.	16g#]	_	.	219.914	.	voice
.	.	.	.	16g#	with	.	.	.	.
.	.	.	.	8g#	it?	.	.	.	.
.	.	8cc#	got	4r	.	.	.	.	.
.	.	16a#	to	.	.	.	.	.	.
.	.	[16cc#	do	.	.	.	.	.	.
=93	=93	=93	=93	=93	=93	=93	=93	=93	=93
2i	C#:maj	16cc#]	_	4r	.	.	221.125	.	voice
.	.	16a#	with	.	.	.	.	.	.
.	.	8a#	it?	.	.	.	.	.	.
.	.	4r	.	4cc#	What's	.	.	.	.
2-VII	G#:maj	4.r	.	8b#	love	.	222.335	.	voice
.	.	.	.	8r	.	.	.	.	.
.	.	.	.	4r	.	.	.	.	.
.	.	16a#	but	.	.	.	.	.	.
.	.	16a#	a	.	.	.	.	.	.
=94	=94	=94	=94	=94	=94	=94	=94	=94	=94
2-VI	F#:maj	8cc#	se-	1r	.	.	223.545	.	voice
.	.	8a#	-cond	.	.	.	.	.	.
.	.	8a#	hand	.	.	.	.	.	.
.	.	8a#	e-	.	.	.	.	.	.
2-VII	G#:maj	4cc#	-mo-	.	.	(F	224.755	.	voice
.	.	4dd#	-tion	.	.	f)	.	.	.
1r;	N	r;	.	r;	.	.	226.873	.	r
1r;	N	r;	.	r;	.	.	229.052	.	r
*-	*-	*-	*-	*-	*-	*-	*-	*-	*-
!!!BillboardChartDate: 1984/09/29
!!!BillboardPeak: 1
!!!BillboardWeeksOnChart: 28
!!!COC: Tina Turner
!!!EMD: Changed staring key to G#m and added keychanges to C#M and A#m. Changed first chord of chord loop in chorus to minor i chord, instead of III. Removed extra measure in second verse. Nat Condit-Schultz 2017/01/13
!!!ENC: Nathaniel Condit-Schultz
!!!EST: Awating manual error checking and editing.
!!!OTL: What's Love Got To Do With It
!!!RDF**harte: Chris Harte's syntax, used by MIREX
!!!RDF**harmony: **recip + pitch class of root + harmonic quality
!!!RDF**leadinstrument: original McGill primary instrumentation annotation
!!!RDF**phrase: newline = linebreak in original McGill transcription
!!!RDF**timestamp: McGill audio timestamp in seconds
!!!RDT: 2017/01/12/
!!!SampleActualRank: 6
!!!SampleID#: 0150
!!!SampleTargetRank: 7
!!!MBID: 51caf173-e21a-45dd-8034-8513bdb8727c
